storage/app/icons/phosphoricons/thin/wifi-slash-thin.svg

<svg xmlns="http://www.w3.org/2000/svg" fill="currentColor" viewBox="0 0 256 256"><path d="M136 204a8 8 0 1 1-8-8 8 8 0 0 1 8 8M51 37.31a4 4 0 0 0-6 5.38l19.72 21.65a167.6 167.6 0 0 0-43.26 25.75 4 4 0 1 0 5.08 6.19 159.4 159.4 0 0 1 43.93-25.62l29.64 32.61a120.1 120.1 0 0 0-46.6 22.64 4 4 0 0 0 5 6.27 112 112 0 0 1 47.85-22.07L142 149.37a72.6 72.6 0 0 0-14-1.37 71.5 71.5 0 0 0-42.36 13.77A4 4 0 0 0 88 169a4.07 4.07 0 0 0 2.36-.76 64 64 0 0 1 62.11-7.38L205 218.69a4 4 0 1 0 5.92-5.38Zm183.54 52.78A168.33 168.33 0 0 0 128 52a171 171 0 0 0-21.5 1.36 4 4 0 0 0 1 7.94A163 163 0 0 1 128 60a160.22 160.22 0 0 1 101.46 36.28 4 4 0 0 0 5.08-6.19m-37 42.09a4 4 0 1 0 5-6.27 120.2 120.2 0 0 0-50.06-23.42 4 4 0 1 0-1.62 7.83 112.2 112.2 0 0 1 46.66 21.86Z"/></svg>

<svg xmlns="http://www.w3.org/2000/svg" viewBox="0 0 256 256" fill="currentColor"><path d="M136,204a8,8,0,1,1-8-8A8,8,0,0,1,136,204ZM51,37.31A4,4,0,0,0,45,42.69L64.72,64.34A167.64,167.64,0,0,0,21.46,90.09a4,4,0,1,0,5.08,6.19A159.4,159.4,0,0,1,70.47,70.66l29.64,32.61a120.12,120.12,0,0,0-46.6,22.64,4,4,0,0,0,5,6.27,112,112,0,0,1,47.85-22.07L142,149.37A72.6,72.6,0,0,0,128,148a71.49,71.49,0,0,0-42.36,13.77A4,4,0,0,0,88,169a4.07,4.07,0,0,0,2.36-.76,64,64,0,0,1,62.11-7.38L205,218.69a4,4,0,1,0,5.92-5.38ZM234.54,90.09A168.33,168.33,0,0,0,128,52a171.08,171.08,0,0,0-21.5,1.36,4,4,0,0,0,1,7.94A162.68,162.68,0,0,1,128,60,160.22,160.22,0,0,1,229.46,96.28a4,4,0,0,0,5.08-6.19Zm-37,42.09a4,4,0,1,0,5-6.27,120.17,120.17,0,0,0-50.06-23.42,4,4,0,1,0-1.62,7.83A112.18,112.18,0,0,1,197.52,132.18Z"/></svg>
